src/Svgs/interxion.svg

<svg fill="none" height="184" viewBox="0 0 1024 184" width="1024" xmlns="http://www.w3.org/2000/svg"><g fill="#a0aec0"><path d="m730.472 116.463c0 35.542 22.85 62.329 58.377 62.329 35.657 0 59.594-26.787 59.594-62.329 0-35.5412-23.836-62.336-59.356-62.336-35.664 0-58.615 26.7948-58.615 62.336zm27.724 0c0-19.6674 12.62-41.4012 30.653-41.4012 18.171 0 31.87 21.7338 31.87 41.4012 0 19.668-13.699 41.388-31.87 41.388-18.033 0-30.653-21.72-30.653-41.388zm-115.668-59.1h-48.507v19.1134h12.231c-4.521 4.9889-17.062 21.9786-19.819 25.0166-2.822-3.002-16.536-19.9989-21.237-25.0166h11.698v-19.1134h-54.698v19.1134h10.201c1.822 1.9653 31.777 34.7566 35.146 38.3776-3.326 3.729-33.044 38.645-34.887 40.711h-15.514v19.927h54.627v-19.927h-11.548c4.917-5.644 18.415-22.202 21.446-25.672 3.182 3.362 17.292 19.949 22.713 25.672h-10.597v19.927h57.621v-19.927h-15.391c-1.843-1.994-32.677-37.14-36.053-40.804 3.225-3.657 33.713-36.2113 35.534-38.2846h10.511v-19.1134zm-137.895 0h-14.47c-13.088 0-17.645 10.4026-25.456 21.4027v-21.4027h-42.114v19.1134h19.581v79.0886h-20.093v19.927h64.669v-19.927h-20.251v-34.613c0-15.831 4.529-43.5253 26.27-43.5253h15.341v-20.0637zm-117.79 83.884c-5.716 10.575-16.702 16.601-30.877 16.601-17.904 0-31.69-11.432-31.819-34.628h84.502v-3.29c0-34.0006-16.709-66.7849-53.402-66.7849-32.598 0-57.384 22.8425-57.384 61.3499 0 25.6 9.704 62.329 58.967 62.329 28.4 0 47.967-14.859 47.967-14.859v-20.718zm-31.121-68.7366c19.725 0 27.277 18.2496 27.277 31.0136h-58.039c0-9.4165 2.959-31.0136 30.762-31.0136zm-121.388-43.2509v28.105h-20.388v20.1068h20.388v70.1617c0 8.963 4.478 27.774 24.131 27.774 16.486 0 29.703-2.023 29.703-2.023v-19.034s-3.333.835-14.232 1.468c-7.336.418-13.311-4.924-13.311-16.176v-62.1707h29.516v-20.1068h-29.516v-38.6588zm666.04 46.5279v-18.4223h-43.022v19.1134h16.731v79.0885h-17.249v19.92h59.802v-19.92h-16.262v-50.012c0-9.9991 6.896-29.5948 28.537-29.5948 3.347 0 20.675 6.2416 20.675 23.2673l.029 56.3395h-15.68l-.122 19.92h58.326v-19.92h-15.269v-65.0864c0-25.7509-20.942-34.9368-36.844-34.9368-31.079 0-38.472 20.4164-39.653 20.2436zm-779.068 0v-18.4223h-43.0284v19.1134h16.7305v79.0885h-17.2416v19.92h59.7955v-19.92h-16.256v-50.012c0-9.9991 6.89-29.5948 28.537-29.5948 3.34 0 20.676 6.2416 20.676 23.2673l.023 56.3395h-15.68l-.115 19.92h58.326v-19.92h-15.276v-65.0864c0-25.7509-20.935-34.9368-36.837-34.9368-31.078 0-38.472 20.4164-39.652 20.2436zm556.177-54.0653c0 9.1068 7.523 16.5146 16.759 16.5146 9.244 0 16.76-7.4078 16.76-16.5146s-7.516-16.51455-16.76-16.51455c-9.236 0-16.759 7.40775-16.759 16.51455zm27.4 35.6409h-40.617v19.1134h16.817v79.0886h-15.823v19.927h59.903v-19.927h-16.803v-98.202zm-685.3494-35.6409c0 9.1068 7.5158 16.5146 16.7593 16.5146 9.2436 0 16.7593-7.4078 16.7593-16.5146s-7.5157-16.51455-16.7593-16.51455c-9.2435 0-16.7593 7.40775-16.7593 16.51455zm27.4009 35.6409h-40.60967v19.1134h16.80247v79.0886h-15.8234v19.927h59.9102v-19.927h-16.8025v-98.202z"/><path d="m1001.48 56.8634 6.27 16.6945 6.3-16.6945h3.63v19.8765h-2.53v-16.5362h-.05l-6.21 16.5362h-2.25l-6.21-16.5362h-.05v16.5362h-2.534v-19.8765h3.624zm-21.75 2.2043v-2.2029h15.867v2.2029h-6.624v17.6664h-2.62v-17.6664z"/></g></svg>

<svg width="1024" height="184" viewBox="0 0 1024 184" fill="none" xmlns="http://www.w3.org/2000/svg">
<path d="M730.472 116.463C730.472 152.005 753.322 178.792 788.849 178.792C824.506 178.792 848.443 152.005 848.443 116.463C848.443 80.9218 824.607 54.127 789.087 54.127C753.423 54.127 730.472 80.9218 730.472 116.463V116.463ZM758.196 116.463C758.196 96.7956 770.816 75.0618 788.849 75.0618C807.02 75.0618 820.719 96.7956 820.719 116.463C820.719 136.131 807.02 157.851 788.849 157.851C770.816 157.851 758.196 136.131 758.196 116.463ZM642.528 57.363H594.021V76.4764H606.252C601.731 81.4653 589.19 98.455 586.433 101.493C583.611 98.491 569.897 81.4941 565.196 76.4764H576.894V57.363H522.196V76.4764H532.397C534.219 78.4417 564.174 111.233 567.543 114.854C564.217 118.583 534.499 153.499 532.656 155.565H517.142V175.492H571.769V155.565H560.221C565.138 149.921 578.636 133.363 581.667 129.893C584.849 133.255 598.959 149.842 604.38 155.565H593.783V175.492H651.404V155.565H636.013C634.17 153.571 603.336 118.425 599.96 114.761C603.185 111.104 633.673 78.5497 635.494 76.4764H646.005V57.363H642.528V57.363ZM504.633 57.363H490.163C477.075 57.363 472.518 67.7656 464.707 78.7657V57.363H422.593V76.4764H442.174V155.565H422.081V175.492H486.75V155.565H466.499V120.952C466.499 105.121 471.028 77.4267 492.769 77.4267H508.11V57.363H504.633V57.363ZM386.843 141.247C381.127 151.822 370.141 157.848 355.966 157.848C338.062 157.848 324.276 146.416 324.147 123.22H408.649V119.93C408.649 85.9294 391.94 53.1451 355.247 53.1451C322.649 53.1451 297.863 75.9876 297.863 114.495C297.863 140.095 307.567 176.824 356.83 176.824C385.23 176.824 404.797 161.965 404.797 161.965V141.247H386.843V141.247ZM355.722 72.5104C375.447 72.5104 382.999 90.76 382.999 103.524H324.96C324.96 94.1075 327.919 72.5104 355.722 72.5104ZM234.334 29.2595V57.3645H213.946V77.4713H234.334V147.633C234.334 156.596 238.812 175.407 258.465 175.407C274.951 175.407 288.168 173.384 288.168 173.384V154.35C288.168 154.35 284.835 155.185 273.936 155.818C266.6 156.236 260.625 150.894 260.625 139.642V77.4713H290.141V57.3645H260.625V18.7057L234.334 29.2595V29.2595ZM900.374 75.7874V57.3651H857.352V76.4785H874.083V155.567H856.834V175.487H916.636V155.567H900.374V105.555C900.374 95.5559 907.27 75.9602 928.911 75.9602C932.258 75.9602 949.586 82.2018 949.586 99.2275L949.615 155.567H933.935L933.813 175.487H992.139V155.567H976.87V90.4806C976.87 64.7297 955.928 55.5438 940.026 55.5438C908.947 55.5438 901.554 75.9602 900.373 75.7874H900.374ZM121.306 75.7874V57.3651H78.2776V76.4785H95.0081V155.567H77.7665V175.487H137.562V155.567H121.306V105.555C121.306 95.5559 128.196 75.9602 149.843 75.9602C153.183 75.9602 170.519 82.2018 170.519 99.2275L170.542 155.567H154.862L154.747 175.487H213.073V155.567H197.797V90.4806C197.797 64.7297 176.862 55.5438 160.96 55.5438C129.882 55.5438 122.488 75.9602 121.308 75.7874H121.306ZM677.483 21.7221C677.483 30.8289 685.006 38.2367 694.242 38.2367C703.486 38.2367 711.002 30.8289 711.002 21.7221C711.002 12.6153 703.486 5.20755 694.242 5.20755C685.006 5.20755 677.483 12.6153 677.483 21.7221ZM704.883 57.363H664.266V76.4764H681.083V155.565H665.26V175.492H725.163V155.565H708.36V57.363H704.883V57.363ZM19.5336 21.7221C19.5336 30.8289 27.0494 38.2367 36.2929 38.2367C45.5365 38.2367 53.0522 30.8289 53.0522 21.7221C53.0522 12.6153 45.5365 5.20755 36.2929 5.20755C27.0494 5.20755 19.5336 12.6153 19.5336 21.7221ZM46.9345 57.363H6.32483V76.4764H23.1273V155.565H7.3039V175.492H67.2141V155.565H50.4116V57.363H46.9345V57.363Z" fill="#A0AEC0"/>
<path d="M1001.48 56.8634L1007.75 73.5579L1014.05 56.8634H1017.68V76.7399H1015.15V60.2037H1015.1L1008.89 76.7399H1006.64L1000.43 60.2037H1000.38V76.7399H997.846V56.8634H1001.47H1001.48ZM979.73 59.0677V56.8648H995.597V59.0677H988.973V76.7341H986.353V59.0677H979.73V59.0677Z" fill="#A0AEC0"/>
</svg>
